icons/lines/video-horizontal.svg

<svg xmlns="http://www.w3.org/2000/svg" width="24" height="24" viewBox="0 0 24 24" fill="none" stroke="currentColor" stroke-width="2" stroke-linecap="round" stroke-linejoin="round" >
  <path d="M22 15V9C22 4 20 2 15 2H9C4 2 2 4 2 9V15C2 20 4 22 9 22H15C20 22 22 20 22 15Z"/>
  <path d="M2.52002 17.11H21.48"/>
  <path d="M2.52002 7.10999H21.48"/>
  <path d="M6.97021 17.11V21.46"/>
  <path d="M12 17.11V21.97"/>
  <path d="M16.9702 17.11V21.52"/>
  <path d="M6.97021 2.10999V6.45999"/>
  <path d="M12 2.10999V6.96999"/>
  <path d="M12 7.03V18.03"/>
  <path d="M16.9702 2.10999V6.51999"/>
  </svg>

<svg xmlns="http://www.w3.org/2000/svg" width="24" height="24" viewBox="0 0 24 24" fill="none" stroke="currentColor" stroke-width="2" stroke-linecap="round" stroke-linejoin="round">
  <path d="M12 2.11v4.86" />
  <path d="M12 7.03v14.94" />
  <path d="M16.97 17.11v4.41" />
  <path d="M16.97 2.11v4.41" />
  <path d="M2.52 17.11h18.96" />
  <path d="M2.52 7.11h18.96" />
  <path d="M22 9c0-5-2-7-7-7H9C4 2 2 4 2 9v6c0 5 2 7 7 7h6c5 0 7-2 7-7z" />
  <path d="M6.97 17.11v4.35" />
  <path d="M6.97 2.11v4.35" />
</svg>
